X:1
T: Miss Jessie Dalrymple's Reel
C:
R:Reel
Q: 232
K:G
M:4/4
L:1/8
|:c|BA BG DG Bd|cB AG FA Ac|BG Bd cA ce|fa df gG Gc|
BA BG DG Bd|cB AG FA Ac|BG Bd cA ce|fa df gG Gf|
g2 dg Bg dB|ce Bd Aa ag|f1/2g1/2a d3/2f1/2 gd BG|ce Ac BG Gf|
g2 dg Bg dB|ce Bd Aa ag|fa gb af gc|Bd Ac BG G:|
